X: 30224
T: Old House, The
R: waltz
M: 3/4
K: Cmajor
A2 c3A|G2 _B3G|F2 A3F|E2 C2 C2|
F2 A4|D2 F3D|CF zE F2|G6|
A2 c3A|G2 _B3G|F2 A3F|E2 C3C|
F2 A3C|D2 F3D|CF F2 E2|F6|
A2 c3A|G2 _B3G|F2 A3F|E2 C4|
F2 A3F|D2 F3D|C2 F2 EF|G6|
A2 c3A|G2 _B3G|F2 A3F|E2 C3C|
F2 A3C|D2 F3D|C3F E2|F6|
A2 c3A|G2 _B3G|F2 A3F|C3C3|
F2 A3F|D2 F3D|C2 F2 E2|G6|
A2 c3A|G2 _B3G|F2 A3F|C3C3|
F2 A3C|F3d3|c2 d2 e2|f6|f6|f6|

